X: 1
T: THUNDER -- HORNPIPE
B: Ryan's Mammoth Collection of Fiddle Tunes
R: hornpipe
M: 2/4
L: 1/16
Z: Contributed 20010926182700 by John Chambers jmchambers:rcn.net
K: Eb
 vEEE2 EEE2 | GEGB eBGE | B,B,B,2 B,B,B,2 | "4"DB,DF BAGF |
| EEE2 EEE2 | GEGB eBGE | Egfe dcB"0"=A | B2B2B2z2 :|
|: vBBB2 BBB2 | Bced cBAG | ABcB AGFE | "0"DEGF E"0"DCB, |
| B,EB,E CECE | "0"DEDE CEB,E | EcBA GFE"0"D | E2E2E2z2 :|
